img/flag.svg

<svg width="52" height="52" viewBox="0 0 52 52" fill="none" xmlns="http://www.w3.org/2000/svg">
<circle cx="26" cy="26" r="25" fill="white" stroke="#172343" stroke-width="2"/>
<path d="M18.1853 14.0006C18.0474 14.0155 17.9202 14.0806 17.8287 14.1831C17.7373 14.2856 17.6882 14.4181 17.6912 14.5544V36.9089H16.5815C16.5642 36.9081 16.5469 36.9081 16.5295 36.9089C16.4567 36.9123 16.3852 36.9297 16.3192 36.9602C16.2531 36.9907 16.1939 37.0337 16.1448 37.0867C16.0956 37.1397 16.0576 37.2017 16.0329 37.2691C16.0082 37.3365 15.9972 37.4081 16.0006 37.4797C16.004 37.5513 16.0218 37.6216 16.0528 37.6865C16.0839 37.7513 16.1276 37.8096 16.1815 37.8578C16.2355 37.9061 16.2986 37.9434 16.3672 37.9677C16.4358 37.992 16.5087 38.0028 16.5815 37.9994H19.9104C19.9839 38.0004 20.0569 37.9871 20.1252 37.9601C20.1934 37.9332 20.2555 37.8932 20.3078 37.8425C20.3602 37.7917 20.4018 37.7313 20.4301 37.6646C20.4585 37.598 20.4731 37.5264 20.4731 37.4542C20.4731 37.3819 20.4585 37.3104 20.4301 37.2437C20.4018 37.1771 20.3602 37.1166 20.3078 37.0659C20.2555 37.0151 20.1934 36.9751 20.1252 36.9482C20.0569 36.9213 19.9839 36.9079 19.9104 36.9089H18.8008V27.0266C20.0414 26.5272 21.1016 26.2769 22.1297 26.2769C24.9826 26.2769 27.5839 27.8849 30.7206 27.9126C32.2664 27.9262 33.9136 27.5661 35.7313 26.4728C35.8134 26.4242 35.8814 26.3555 35.9285 26.2734C35.9756 26.1912 36.0002 26.0985 36 26.0043V15.6448C36.0002 15.5482 35.9743 15.4532 35.9249 15.3696C35.8755 15.286 35.8044 15.2169 35.7188 15.1692C35.6333 15.1215 35.5363 15.097 35.438 15.0983C35.3396 15.0995 35.2434 15.1264 35.1591 15.1763C33.561 16.1375 32.0505 16.4778 30.7379 16.4627C29.3286 16.4464 28.0002 15.9986 26.6115 15.5255C25.2228 15.0525 23.7709 14.5544 22.1297 14.5544C21.0955 14.5544 19.9402 14.8116 18.8008 15.2274V14.5544C18.802 14.4813 18.7882 14.4088 18.7603 14.3411C18.7324 14.2734 18.6909 14.2119 18.6383 14.1602C18.5858 14.1086 18.5232 14.0678 18.4543 14.0404C18.3854 14.013 18.3116 13.9995 18.2373 14.0006C18.22 13.9998 18.2026 13.9998 18.1853 14.0006ZM22.1297 15.6448C23.5399 15.6448 24.8608 16.084 26.2474 16.5564C27.634 17.0287 29.0834 17.5343 30.7206 17.5531C31.9945 17.5678 33.4221 17.2657 34.8904 16.5479V25.6805C33.3506 26.5501 32.0296 26.8335 30.7379 26.8221C28.0084 26.7981 25.3797 25.1864 22.1297 25.1864C21.0484 25.1864 19.9632 25.421 18.8008 25.8509V16.3945C19.9772 15.9225 21.1787 15.6448 22.1297 15.6448Z" fill="black"/>
</svg>

<svg width="52" height="52" fill="none" xmlns="http://www.w3.org/2000/svg"><circle cx="26" cy="26" r="25" fill="#fff" stroke="#172343" stroke-width="2"/><path d="M18.185 14a.558.558 0 0 0-.356.183.54.54 0 0 0-.138.371V36.91h-1.11a.564.564 0 0 0-.436.178.543.543 0 0 0-.092.6.548.548 0 0 0 .314.28.564.564 0 0 0 .214.032h3.33a.563.563 0 0 0 .397-.157.544.544 0 0 0 .122-.598.543.543 0 0 0-.305-.296.565.565 0 0 0-.215-.04H18.8v-9.881c1.241-.5 2.302-.75 3.33-.75 2.853 0 5.454 1.608 8.59 1.636 1.546.013 3.194-.347 5.011-1.44a.55.55 0 0 0 .269-.469v-10.36a.539.539 0 0 0-.281-.475.562.562 0 0 0-.56.007c-1.598.961-3.108 1.302-4.421 1.287-1.41-.017-2.738-.464-4.127-.938-1.388-.473-2.84-.97-4.481-.97-1.034 0-2.19.257-3.33.672v-.673a.536.536 0 0 0-.162-.394.555.555 0 0 0-.4-.16h-.053Zm3.945 1.645c1.41 0 2.73.439 4.117.911 1.387.473 2.836.978 4.474.997 1.273.015 2.701-.287 4.17-1.005v9.133c-1.54.87-2.861 1.152-4.153 1.141-2.73-.024-5.358-1.636-8.608-1.636-1.082 0-2.167.235-3.33.665v-9.456c1.177-.473 2.379-.75 3.33-.75Z" fill="#000"/></svg>
